newicons/lumina_walls.svg

<?xml version="1.0" encoding="UTF-8" standalone="no"?>
<svg
   viewBox="0 0 48 48"
   version="1.1"
   id="svg1"
   sodipodi:docname="lumina_walls.svg"
   inkscape:version="1.3.2 (091e20ef0f, 2023-11-25)"
   xml:space="preserve"
   xmlns:inkscape="http://www.inkscape.org/namespaces/inkscape"
   xmlns:sodipodi="http://sodipodi.sourceforge.net/DTD/sodipodi-0.dtd"
   xmlns="http://www.w3.org/2000/svg"
   xmlns:svg="http://www.w3.org/2000/svg"><sodipodi:namedview
     id="namedview1"
     pagecolor="#505050"
     bordercolor="#eeeeee"
     borderopacity="1"
     inkscape:showpageshadow="0"
     inkscape:pageopacity="0"
     inkscape:pagecheckerboard="0"
     inkscape:deskcolor="#505050"
     inkscape:zoom="8"
     inkscape:cx="-2.8125"
     inkscape:cy="25.6875"
     inkscape:window-width="1918"
     inkscape:window-height="1053"
     inkscape:window-x="0"
     inkscape:window-y="0"
     inkscape:window-maximized="1"
     inkscape:current-layer="svg1" /><defs
     id="defs1"><style
       id="style1">.a { fill:none;stroke:#fff;stroke-linecap:round;stroke-linejoin:round; }
</style></defs><g
     id="g19"
     style="display:inline"><path
       style="fill:none;fill-opacity:0;stroke-opacity:1;stroke:#ffffff;stroke-linecap:round;stroke-linejoin:round;"
       d="m 23.890604,28.854804 c 0.246708,-3.15041 2.527385,-4.553462 5.108717,-4.553462 h 0.824352 c 4.193847,0.0127 8.390091,-0.04293 12.582945,0 v 0 l -8.69e-4,7.848023 c -6.3e-4,5.685095 -4.576682,10.261941 -10.261573,10.261941 l -16.381967,-6e-6 c -5.684886,0 -10.2618904,-4.576852 -10.2618904,-10.261941 L 5.5000002,5.6554174 13.606421,5.6546547 c 5.684901,0 10.262113,4.5768383 10.262113,10.2619433 v 12.393239 c 0,3.55709 2.396752,5.131046 5.130787,5.131046 h 0.824352 12.186717"
       id="path18" /><path
       style="fill:none;fill-opacity:0;stroke-opacity:1;stroke:#ffffff;stroke-linecap:round;stroke-linejoin:round;"
       d="m 25.060094,42.4113 c -5.684886,0 -10.261507,-4.576852 -10.261507,-10.261941 V 18.617033 c 0,-2.131919 -1.691142,-3.848228 -3.822984,-3.848228 H 5.5003186"
       id="path17" /></g><g
     id="g18"><path
       style="fill:none;fill-opacity:0;stroke-opacity:1;stroke:#ffffff;stroke-linecap:round;stroke-linejoin:round;"
       d="m 36.915714,5.5886935 c -5.684912,0 -10.261163,4.5769075 -10.261163,10.2620225 v 5.754555 h 5.583876 C 37.923338,21.605271 42.5,17.028446 42.5,11.34333 V 5.5886935 Z"
       id="path16" /><path
       style="fill:none;fill-opacity:0;stroke-opacity:1;stroke:#ffffff;stroke-linecap:round;stroke-linejoin:round;"
       d="m 29.106159,21.605271 c 5.684911,0 10.261573,-4.576825 10.261573,-10.261941 V 5.5886935"
       id="path1-1" /></g></svg>

<?xml version="1.0" encoding="UTF-8"?><svg id="a" xmlns="http://www.w3.org/2000/svg" viewBox="0 0 48 48"><defs><style>.h{fill:none;stroke:#fff;stroke-linecap:round;stroke-linejoin:round;}</style></defs><g id="b"><path id="c" class="h" d="M23.8906,28.8548c.2467-3.1504,2.5274-4.5535,5.1087-4.5535h.8244c4.1938.0127,8.3901-.0429,12.5829,0h0l-.0009,7.848c-.0006,5.6851-4.5767,10.2619-10.2616,10.2619H15.7622c-5.6849,0-10.2619-4.5769-10.2619-10.2619l-.0003-26.4939,8.1064-.0008c5.6849,0,10.2621,4.5768,10.2621,10.2619v12.3932c0,3.5571,2.3968,5.131,5.1308,5.131h13.0111"/><path id="d" class="h" d="M25.0601,42.4113c-5.6849,0-10.2615-4.5769-10.2615-10.2619v-13.5323c0-2.1319-1.6911-3.8482-3.823-3.8482h-5.4753"/></g><g id="e"><path id="f" class="h" d="M36.9157,5.5887c-5.6849,0-10.2612,4.5769-10.2612,10.262v5.7546h5.5839c5.6849,0,10.2616-4.5768,10.2616-10.2619v-5.7546h-5.5843Z"/><path id="g" class="h" d="M29.1062,21.6053c5.6849,0,10.2616-4.5768,10.2616-10.2619v-5.7546"/></g></svg>
